X: 5
T: The Siege Of Ennis
R: polka
M: 2/4
L: 1/8
K: Gmaj
D>E DB, | DE GA | Bd AB/A/ | GE cE |
D>E DB, | DE GA | Bd AB/A/ | G2 G2 :||
{A}Bd d>B | ce e>B | Bd AB/A/ | GE cE |
{A}Bd d>B | ce e>f | ge (3)fed | e<e e<g |
ge fd | ed BA | Bd AB/A/ | GE cE |
D>E DB, | DE GA |Bd AB/A/ | G2 G2 ||
Bd Bd|Bd d2|ed Bd|ed BA|
Bd Bd|Bd d2|ed BA|AG G2:||
GB d2|ed c2|dB G>A|BA A>B|
GB d2|ed c2|dB GE|ED D2:||


Tune 1640	Setting 1640

